X:1
T:The Boys Of Malin
R: reel
M:4/4
L:1/8
O:Trad. (25.11.2015/NS)
K:Amaj
|: "A"    ABcd eAce | "D" fedf "E" edcB  | "A"  ABcd        eAce |1 "E" fdBc     d2cB :|2 "E" fdBc defg ||
   "A"    aAAA cAce |     a2ag     fefg  | "Bm" aAAA        cAce |      fdBc     defg  |
   "A/C#" aAAA cAce |     a2ag     f2g2  | "D"  afge "A/C#" fdec | "Bm" dcBc "E" d2cB  |
|: "A"    Aece Aece |     Aece "D" ~d2cB | "A"  Aece        Aece | "E"  fdBc     d2cB :|

